X:1054
T:An Irish Air.
N:[pencil note] Anna
M:C
L:1/8
I: :: ||
Q:1/4=76 "Slow & Tender"
Z:Jack Campin * www.campin.me.uk * 2009
K:G
g3 a  b2 (ba) |(ag)(gd)  d4    | e2  d2   g2(fg)|({f} e4) d4 |
g2g2 (gb)(bd')| d2 (de)  ed cB |(cd)(ef) (f>agB)|({B}TA4) G4:|
B3 A  B2  c2  | d2 (de)  d2 z2 | e2  d2   g2 fg |({f}Te4) d4 |
g2g2  gb``bd' | d2 (de) (ed`cB)|(cd``ef)  f>agB |({B}TA4) G4:|<end>
<start>
